X: 10612
Q: "Strathspey."
M: C
L: 1/8
K: Gm
c |\
d |\
g>dg<b g>dg<b | f>cf<a f>cf<a |
g>dg<b g>dg<b | f>c d/c/B/A/ G2G>d |\
g>dg<b dg/a/ b<g | f>cf<a cf/g/ a{ga}^f |\
g<dd>=e f>ga>g | fd/f/ d/c/B/A/ {A}G2G |]


